icons/astro.svg

<svg width="16" height="16" viewBox="0 0 16 16" fill="none" xmlns="http://www.w3.org/2000/svg">
<path fill-rule="evenodd" clip-rule="evenodd" d="M2.68283 10.9211L5.27931 2.69887C5.41069 2.28284 5.79661 2 6.23289 2H9.76712C10.2034 2 10.5893 2.28284 10.7207 2.69887L13.3172 10.9211C13.4295 11.2768 13.3345 11.6655 13.0707 11.9293L11.2929 13.7071C11.1054 13.8946 10.851 14 10.5858 14H5.41422C5.149 14 4.89465 13.8946 4.70711 13.7071L2.9293 11.9293C2.66551 11.6655 2.57049 11.2768 2.68283 10.9211ZM9.92391 3.90489L9.92391 3.9049L12 10.3766C11.2324 9.96236 10.398 9.66359 9.51794 9.50239L8.16619 5.37355C8.14408 5.29579 8.07542 5.24245 7.99748 5.24245C7.91934 5.24245 7.85057 5.29607 7.82862 5.37409L6.49325 9.5C5.60913 9.66046 4.77088 9.95978 4 10.3755L6.08628 3.90325C6.1816 3.57903 6.22927 3.41692 6.32246 3.2968C6.40472 3.19075 6.51173 3.10839 6.63327 3.05757C6.77095 3 6.9339 3 7.2598 3H8.74991C9.07624 3 9.23941 3 9.37721 3.05769C9.49886 3.10862 9.60593 3.19114 9.68819 3.29738C9.78136 3.41773 9.82888 3.58012 9.92391 3.90489ZM10.5678 10.5536C10.1085 10.797 9.1919 10.963 8.13608 10.963C6.84018 10.963 5.75402 10.7129 5.4658 10.3766C5.36276 10.5694 5.33966 10.79 5.33966 10.9309C5.33966 10.9309 5.27177 11.6229 6.04821 12.1042C6.04821 11.8543 6.37506 11.6517 6.77822 11.6517C7.46926 11.6517 7.46848 12.0254 7.46785 12.3286L7.46782 12.3556C7.46782 12.8158 7.92156 13.2103 8.56685 13.3766C8.47047 13.2537 8.4164 13.1157 8.4164 12.9699C8.4164 12.531 8.83209 12.3676 9.3152 12.1777L9.31523 12.1777L9.3153 12.1776C9.69968 12.0265 10.1268 11.8586 10.4211 11.5218C10.5746 11.3461 10.6619 11.1448 10.6619 10.9309C10.6619 10.7994 10.6289 10.6726 10.5678 10.5536Z" fill="#FF7E33"/>
</svg>

<svg xmlns="http://www.w3.org/2000/svg" width="16" height="16" fill="none"><path fill="#B176E6" fill-rule="evenodd" d="M2.683 10.921 5.279 2.7A1 1 0 0 1 6.233 2h3.534a1 1 0 0 1 .954.699l2.596 8.222a1 1 0 0 1-.246 1.008l-1.778 1.778a1 1 0 0 1-.707.293H5.414a1 1 0 0 1-.707-.293L2.93 11.93a1 1 0 0 1-.246-1.008Zm7.24-7.016L12 10.377a8.414 8.414 0 0 0-2.482-.875L8.166 5.374a.177.177 0 0 0-.169-.132.177.177 0 0 0-.168.132L6.493 9.5c-.884.16-1.722.46-2.493.876l2.086-6.473c.096-.324.143-.486.236-.606a.77.77 0 0 1 .311-.24C6.771 3 6.933 3 7.26 3h1.49c.326 0 .49 0 .627.058a.77.77 0 0 1 .311.24c.093.12.14.282.236.607Zm.645 6.649c-.46.243-1.376.409-2.432.409-1.296 0-2.382-.25-2.67-.586a1.217 1.217 0 0 0-.126.554s-.068.692.708 1.173c0-.25.327-.452.73-.452.691 0 .69.373.69.677v.027c0 .46.454.854 1.099 1.02a.656.656 0 0 1-.15-.406c0-.439.415-.602.898-.792.385-.152.812-.32 1.106-.656a.895.895 0 0 0 .24-.591.82.82 0 0 0-.093-.377Z" clip-rule="evenodd"/></svg>
